X: 1663
T: Clark's Hornpipe
R: hornpipe, reel
%S: s:4 b:16(4+4+4+4)
M: 2/4
L: 1/16
B: O'Neill's 1850 #1663
K: D
(3ABc \
| d2AG FDFA | BGBd cAce | fdge afed | c2e2 egfe |
| d2AG FDFA | BGBd cAce | dbag fgec | d2f2 d2 :|
|: (3efg \
| a2fd Adfa | g2ec Aceg | fafd Bged | cedB Agfe |
| d2AG FDFA | BGBd cAce | dbag fgec | d2f2 d2 :|
